maxim/img/border.svg

<svg width="1426" height="812" viewBox="0 0 1426 812" fill="none" xmlns="http://www.w3.org/2000/svg">
<path d="M41.5 2.99902H1V42.999H9V769.499H2V810.999H41.5V802.999H1384V809.999H1422.5V768.5H1415V42H1423.5V2H1383V10H41.5V2.99902Z" stroke="black"/>
<path d="M2 2H44.5V9" stroke="black"/>
<path d="M9.90057 42.5366L9.90057 65.0273L12.3978 65.0273L12.3978 50.484L20.3439 50.484L20.3438 40.0174L12.3978 40.0174L12.3978 34.5435L20.3438 34.5435L20.3438 26.5275L25.7699 26.5275L25.7699 34.5435L36.1963 34.5435L36.1963 24.0253L28.2502 24.0253L28.2502 18.5516L36.1963 18.5516L36.1963 10.5356L41.6221 10.5356L41.6221 18.5516L52.0315 18.5516L52.0315 10.5356L66.9871 10.5356L66.9871 8.01617L44.1195 8.01617L44.1195 0.000143117L2 0.000144958L2 42.4965L9.90057 42.5366ZM17.8466 42.5366L17.8466 47.9589L12.4206 47.9589L12.4206 42.5366L17.8466 42.5366ZM33.6932 26.5447L33.6932 32.0185L28.2728 32.0185L28.2728 26.5447L33.6932 26.5447ZM49.5342 10.5584L49.5342 16.0322L44.1195 16.0322L44.1195 10.5584L49.5342 10.5584ZM25.7699 18.5744L25.7699 24.0482L20.3438 24.0482L20.3438 18.5744L25.7699 18.5744ZM17.8239 18.5744L17.8239 24.0482L12.3978 24.0482L12.3978 18.5744L17.8239 18.5744ZM4.4859 40.0174L4.4859 2.56527L41.6108 2.56526L41.6108 8.0391L33.6648 8.0391L33.6648 16.0551L28.2446 16.0551L28.2446 8.0391L17.8239 8.0391L17.8239 16.0551L9.87784 16.0551L9.87784 26.5676L17.8239 26.5676L17.8239 32.0413L9.87784 32.0413L9.87784 40.0574L4.4859 40.0174ZM25.7585 16.0322L20.3325 16.0322L20.3325 10.5584L25.7585 10.5584L25.7585 16.0322Z" fill="#FFDE88"/>
<path fill-rule="evenodd" clip-rule="evenodd" d="M53.5039 8.01575L53.5039 10.5352L1042.92 10.5351L1042.92 8.01571L53.5039 8.01575Z" fill="#FFDE88"/>
<path fill-rule="evenodd" clip-rule="evenodd" d="M12.427 65.0273H9.92969L9.92969 780.709H12.427L12.427 65.0273Z" fill="#FFDE88"/>
<path d="M1418.02 42.5366L1418.02 65.0273L1415.52 65.0273L1415.52 50.484L1407.58 50.484L1407.58 40.0174L1415.52 40.0174L1415.52 34.5435L1407.58 34.5435L1407.58 26.5275L1402.15 26.5275L1402.15 34.5435L1391.73 34.5435L1391.73 24.0253L1399.67 24.0253L1399.67 18.5516L1391.73 18.5516L1391.73 10.5356L1386.3 10.5356L1386.3 18.5516L1375.89 18.5516L1375.89 10.5356L1360.93 10.5356L1360.93 8.01617L1383.8 8.01617L1383.8 0.000143117L1425.92 0.000144958L1425.92 42.4965L1418.02 42.5366ZM1410.08 42.5366L1410.08 47.9589L1415.5 47.9589L1415.5 42.5366L1410.08 42.5366ZM1394.23 26.5447L1394.23 32.0185L1399.65 32.0185L1399.65 26.5447L1394.23 26.5447ZM1378.39 10.5584L1378.39 16.0322L1383.8 16.0322L1383.8 10.5584L1378.39 10.5584ZM1402.15 18.5744L1402.15 24.0482L1407.58 24.0482L1407.58 18.5744L1402.15 18.5744ZM1410.1 18.5744L1410.1 24.0482L1415.52 24.0482L1415.52 18.5744L1410.1 18.5744ZM1423.44 40.0174L1423.44 2.56527L1386.31 2.56526L1386.31 8.0391L1394.26 8.0391L1394.26 16.0551L1399.68 16.0551L1399.68 8.0391L1410.1 8.0391L1410.1 16.0551L1418.04 16.0551L1418.04 26.5676L1410.1 26.5676L1410.1 32.0413L1418.04 32.0413L1418.04 40.0574L1423.44 40.0174ZM1402.16 16.0322L1407.59 16.0322L1407.59 10.5584L1402.16 10.5584L1402.16 16.0322Z" fill="#FFDE88"/>
<path fill-rule="evenodd" clip-rule="evenodd" d="M1374.42 8.01575L1374.42 10.5352L385 10.5351L385 8.01571L1374.42 8.01575Z" fill="#FFDE88"/>
<path fill-rule="evenodd" clip-rule="evenodd" d="M1415.49 65.0273H1417.99L1417.99 780.709H1415.49L1415.49 65.0273Z" fill="#FFDE88"/>
<path fill-rule="evenodd" clip-rule="evenodd" d="M12.427 756H9.92969L9.92969 259H12.427L12.427 756Z" fill="#FFDE88"/>
<path fill-rule="evenodd" clip-rule="evenodd" d="M1415.49 745H1417.99L1417.99 259H1415.49L1415.49 745Z" fill="#FFDE88"/>
<path d="M9.90057 767.172L9.90057 744.682L12.3978 744.682L12.3978 759.225L20.3439 759.225L20.3438 769.692L12.3978 769.692L12.3978 775.165L20.3438 775.165L20.3438 783.181L25.7699 783.181L25.7699 775.165L36.1963 775.165L36.1963 785.684L28.2502 785.684L28.2502 791.157L36.1963 791.157L36.1963 799.173L41.6221 799.173L41.6221 791.157L52.0315 791.157L52.0315 799.173L66.9871 799.173L66.9871 801.693L44.1195 801.693L44.1195 809.709L2 809.709L2 767.212L9.90057 767.172ZM17.8466 767.172L17.8466 761.75L12.4206 761.75L12.4206 767.172L17.8466 767.172ZM33.6932 783.164L33.6932 777.69L28.2728 777.69L28.2728 783.164L33.6932 783.164ZM49.5342 799.151L49.5342 793.677L44.1195 793.677L44.1195 799.151L49.5342 799.151ZM25.7699 791.135L25.7699 785.661L20.3438 785.661L20.3438 791.135L25.7699 791.135ZM17.8239 791.135L17.8239 785.661L12.3978 785.661L12.3978 791.135L17.8239 791.135ZM4.4859 769.692L4.4859 807.144L41.6108 807.144L41.6108 801.67L33.6648 801.67L33.6648 793.654L28.2446 793.654L28.2446 801.67L17.8239 801.67L17.8239 793.654L9.87784 793.654L9.87784 783.141L17.8239 783.141L17.8239 777.668L9.87784 777.668L9.87784 769.652L4.4859 769.692ZM25.7585 793.677L20.3325 793.677L20.3325 799.151L25.7585 799.151L25.7585 793.677Z" fill="#FFDE88"/>
<path fill-rule="evenodd" clip-rule="evenodd" d="M53.5039 801.693L53.5039 799.174L1042.92 799.174L1042.92 801.693L53.5039 801.693Z" fill="#FFDE88"/>
<path d="M1418.02 767.172L1418.02 744.682L1415.52 744.682L1415.52 759.225L1407.58 759.225L1407.58 769.692L1415.52 769.692L1415.52 775.165L1407.58 775.165L1407.58 783.181L1402.15 783.181L1402.15 775.165L1391.73 775.165L1391.73 785.684L1399.67 785.684L1399.67 791.157L1391.73 791.157L1391.73 799.173L1386.3 799.173L1386.3 791.157L1375.89 791.157L1375.89 799.173L1360.93 799.173L1360.93 801.693L1383.8 801.693L1383.8 809.709L1425.92 809.709L1425.92 767.212L1418.02 767.172ZM1410.08 767.172L1410.08 761.75L1415.5 761.75L1415.5 767.172L1410.08 767.172ZM1394.23 783.164L1394.23 777.69L1399.65 777.69L1399.65 783.164L1394.23 783.164ZM1378.39 799.151L1378.39 793.677L1383.8 793.677L1383.8 799.151L1378.39 799.151ZM1402.15 791.135L1402.15 785.661L1407.58 785.661L1407.58 791.135L1402.15 791.135ZM1410.1 791.135L1410.1 785.661L1415.52 785.661L1415.52 791.135L1410.1 791.135ZM1423.44 769.692L1423.44 807.144L1386.31 807.144L1386.31 801.67L1394.26 801.67L1394.26 793.654L1399.68 793.654L1399.68 801.67L1410.1 801.67L1410.1 793.654L1418.04 793.654L1418.04 783.141L1410.1 783.141L1410.1 777.668L1418.04 777.668L1418.04 769.652L1423.44 769.692ZM1402.16 793.677L1407.59 793.677L1407.59 799.151L1402.16 799.151L1402.16 793.677Z" fill="#FFDE88"/>
<path fill-rule="evenodd" clip-rule="evenodd" d="M1374.42 801.693L1374.42 799.174L385 799.174L385 801.693L1374.42 801.693Z" fill="#FFDE88"/>
</svg>

<svg width="1426" height="812" fill="none" xmlns="http://www.w3.org/2000/svg"><path d="M41.5 2.999H1v40h8v726.5H2v41.5h39.5v-8H1384v7h38.5V768.5h-7.5V42h8.5V2H1383v8H41.5V2.999Z" stroke="#000"/><path d="M2 2h42.5v7" stroke="#000"/><path d="M9.9 42.537v22.49h2.498V50.484h7.946V40.017h-7.946v-5.474h7.946v-8.015h5.426v8.016h10.426V24.025H28.25v-5.473h7.946v-8.016h5.426v8.016h10.41v-8.016h14.955v-2.52H44.12V0H2v42.496l7.9.04Zm7.947 0v5.422H12.42v-5.422h5.426Zm15.846-15.992v5.474h-5.42v-5.474h5.42Zm15.841-15.987v5.474H44.12v-5.474h5.414ZM25.77 18.574v5.474h-5.426v-5.474h5.426Zm-7.946 0v5.474h-5.426v-5.474h5.426ZM4.486 40.017V2.565H41.61V8.04h-7.946v8.016h-5.42V8.04h-10.42v8.016H9.878v10.513h7.946v5.473H9.878v8.016l-5.392-.04Zm21.273-23.985h-5.427v-5.474h5.427v5.474Z" fill="#FFDE88"/><path fill-rule="evenodd" clip-rule="evenodd" d="M53.504 8.016v2.52h989.416v-2.52H53.504ZM12.427 65.027H9.93V780.71h2.497V65.027Z" fill="#FFDE88"/><path d="M1418.02 42.537v22.49h-2.5V50.484h-7.94V40.017h7.94v-5.474h-7.94v-8.015h-5.43v8.016h-10.42V24.025h7.94v-5.473h-7.94v-8.016h-5.43v8.016h-10.41v-8.016h-14.96v-2.52h22.87V0h42.12v42.496l-7.9.04Zm-7.94 0v5.422h5.42v-5.422h-5.42Zm-15.85-15.992v5.474h5.42v-5.474h-5.42Zm-15.84-15.987v5.474h5.41v-5.474h-5.41Zm23.76 8.016v5.474h5.43v-5.474h-5.43Zm7.95 0v5.474h5.42v-5.474h-5.42Zm13.34 21.443V2.565h-37.13V8.04h7.95v8.016h5.42V8.04h10.42v8.016h7.94v10.513h-7.94v5.473h7.94v8.016l5.4-.04Zm-21.28-23.985h5.43v-5.474h-5.43v5.474Z" fill="#FFDE88"/><path fill-rule="evenodd" clip-rule="evenodd" d="M1374.42 8.016v2.52H385v-2.52h989.42Zm41.07 57.011h2.5V780.71h-2.5V65.027ZM12.427 756H9.93V259h2.497v497Z" fill="#FFDE88"/><path fill-rule="evenodd" clip-rule="evenodd" d="M1415.49 745h2.5V259h-2.5v486Z" fill="#FFDE88"/><path d="M9.9 767.172v-22.49h2.498v14.543h7.946v10.467h-7.946v5.473h7.946v8.016h5.426v-8.016h10.426v10.519H28.25v5.473h7.946v8.016h5.426v-8.016h10.41v8.016h14.955v2.52H44.12v8.016H2v-42.497l7.9-.04Zm7.947 0v-5.422H12.42v5.422h5.426Zm15.846 15.992v-5.474h-5.42v5.474h5.42Zm15.841 15.987v-5.474H44.12v5.474h5.414Zm-23.764-8.016v-5.474h-5.426v5.474h5.426Zm-7.946 0v-5.474h-5.426v5.474h5.426ZM4.486 769.692v37.452H41.61v-5.474h-7.946v-8.016h-5.42v8.016h-10.42v-8.016H9.878v-10.513h7.946v-5.473H9.878v-8.016l-5.392.04Zm21.273 23.985h-5.427v5.474h5.427v-5.474Z" fill="#FFDE88"/><path fill-rule="evenodd" clip-rule="evenodd" d="M53.504 801.693v-2.519h989.416v2.519H53.504Z" fill="#FFDE88"/><path d="M1418.02 767.172v-22.49h-2.5v14.543h-7.94v10.467h7.94v5.473h-7.94v8.016h-5.43v-8.016h-10.42v10.519h7.94v5.473h-7.94v8.016h-5.43v-8.016h-10.41v8.016h-14.96v2.52h22.87v8.016h42.12v-42.497l-7.9-.04Zm-7.94 0v-5.422h5.42v5.422h-5.42Zm-15.85 15.992v-5.474h5.42v5.474h-5.42Zm-15.84 15.987v-5.474h5.41v5.474h-5.41Zm23.76-8.016v-5.474h5.43v5.474h-5.43Zm7.95 0v-5.474h5.42v5.474h-5.42Zm13.34-21.443v37.452h-37.13v-5.474h7.95v-8.016h5.42v8.016h10.42v-8.016h7.94v-10.513h-7.94v-5.473h7.94v-8.016l5.4.04Zm-21.28 23.985h5.43v5.474h-5.43v-5.474Z" fill="#FFDE88"/><path fill-rule="evenodd" clip-rule="evenodd" d="M1374.42 801.693v-2.519H385v2.519h989.42Z" fill="#FFDE88"/></svg>
